X:1
T:Cheyenne
M:3/4
L:1/4
K:Bb
 B/2B/2| c c c/2d/2| c B B| d3/2 c/2d/2-c/2| B F G| B3/2 G/2B/2 B/2|\
 B- F B/2B/2| B2 D| C B, F| D3/2 C/2 D| B,2 G/2G/2| F D C| B,2 F| D3/2 C/2 D|\
 B,2 G/2G/2| F D C| B,2||
